X:1
T:Dreamin'
T:Dreamin'
C:Barry De Vorzon, Ted Ellis
Z:All Rights Reserved
L:1/8
M:4/4
K:D
V:1 treble nm="Guitar" snm="Guit."
%%MIDI program 24
V:1
"D " d4- dc dc |"Bmin" B4- BA BA |"Emin" G4- GG Bd |"A7" c8 |"D " d4- dc dc |"Bmin" B4- BA BA | %6
w: ||||||
"Emin" G4- GG Bd |"A7" c8 |"D " FA- A6- | A4 (3F2 E2 D2 |"Bmin" FB- B6- | B8 |"G " GB- B6- | %13
w: ||Drea- min', *|* ~I'm ~al- ways|~drea- min', *||Drea- min' *|
 B4 (3B2 c2 d2 |"A7" c8- | c8 |"D " FA- A6- | A4 (3F2 E2 D2 |"Bmin" FB- B6- | B8 |"G " GB- B6- | %21
w: * ~love ~will ~be|~mine.||Sear- chin', *|* ~I'm ~al- ways|~sear- chin', *||Ho- pin' *|
 B4 (3B2 c2 d2 |"A7" c8- | c8 |"G " d2 B6- | B4 (3d2 c2 B2 |"F#min" c2 A6- | A4 (3c2 B2 A2 | %28
w: * ~some day ~I'll|~find;||Some- one,-|* ~some- one ~to|~love ~me,|* Some- one ~who|
"G " B2 G6- |"Emin" G4 (3B2 c2 d2 |"A7" c8 | z B BA A2 G2 |"D " FA- A6- | A4 (3F2 E2 D2 | %34
w: ~needs ~me,|* ~but ~un- til|~then;|Well I'll * ~keep ~on|~drea- min', *|* Keep ~right ~on|
"Bmin" FB- B6- | B8 |"G " GB- B6 |"A7" (3z2 d2 B2 (3c2 d2 e2 |"D " d4 z c dc |"Bmin" B4 z A BA | %40
w: ~drea- min', *||Drea- min' *|~'til ~my ~drea- min' ~comes|true. * * *||
"G " G4 z G Bd |"A7" c8 |"D " d4 z c dc |"Bmin" B4 z A BA |"G " G4 z G Bd |"A7" c8 |"D " FA- A6- | %47
w: ||||||Drea- min', *|
 A4 (3F2 E2 D2 |"Bmin" FB- B6- | B8 |"G " GB- B6- | B4 (3B2 c2 d2 |"A7" c8- | c8 |"D " FA- A6- | %55
w: * ~I'm ~al- ways|~drea- min', *||Drea- min' *|* ~love ~will ~be|~mine.||Sear- chin', *|
 A4 (3F2 E2 D2 |"Bmin" FB- B6- | B8 |"G " GB- B6- | B4 (3B2 c2 d2 |"A7" c8- | c8 |"G " d2 B6- | %63
w: * ~I'm ~al- ways|~sear- chin', *||Ho- pin' *|* ~some day ~I'll|~find;||Some- one,-|
 B4 (3d2 c2 B2 |"F#min" c2 A6- | A4 (3c2 B2 A2 |"G " B2 G6- |"Emin" G4 (3B2 c2 d2 |"A7" c8 | %69
w: * ~some- one ~to|~love ~me,|* Some- one ~who|~needs ~me,|* ~but ~un- til|~then;|
 z B BA A2 G2 |"D " FA- A6- | A4 (3F2 E2 D2 |"Bmin" FB- B6- | B8 |"G " GB- B6 | %75
w: Well I'll * ~keep ~on|~drea- min', *|* Keep ~right ~on|~drea- min', *||Drea- min' *|
"A7" (3z2 d2 B2 (3c2 d2 e2 |"D " d4 z c dc |"Bmin" B4 z A BA |"G " G4 z G Bd |"A7" c8 | %80
w: ~'til ~my ~drea- min' ~comes|true. * * *||||
"D " d4 z c dc |"Bmin" B4 z A BA |"G " G4 z G Bd |"A7" c8 |"D " d4 z c dc |"Bmin" B4 z A BA | %86
w: ||||||
"G " G4 z G Bd |"A7" c8 |"D " d8 |] %89
w: |||

